apps/symbolic/applets-screenshooter-symbolic.svg

<svg height="24" viewBox="0 0 24 24" width="24" xmlns="http://www.w3.org/2000/svg"><path d="m4.8 5.7h2.7l1.8-1.8h5.4l1.8 1.8h2.7a1.8 1.8 0 0 1 1.8 1.8v10.8a1.8 1.8 0 0 1 -1.8 1.8h-14.4a1.8 1.8 0 0 1 -1.8-1.8v-10.8a1.8 1.8 0 0 1 1.8-1.8m7.2 2.7a4.5 4.5 0 0 0 -4.5 4.5 4.5 4.5 0 0 0 4.5 4.5 4.5 4.5 0 0 0 4.5-4.5 4.5 4.5 0 0 0 -4.5-4.5m0 1.8a2.7 2.7 0 0 1 2.7 2.7 2.7 2.7 0 0 1 -2.7 2.7 2.7 2.7 0 0 1 -2.7-2.7 2.7 2.7 0 0 1 2.7-2.7z" fill="#bebebe" stroke-width=".9"/></svg>

<?xml version="1.0" encoding="UTF-8" standalone="no"?>
<svg
   xmlns:dc="http://purl.org/dc/elements/1.1/"
   xmlns:cc="http://creativecommons.org/ns#"
   xmlns:rdf="http://www.w3.org/1999/02/22-rdf-syntax-ns#"
   xmlns:svg="http://www.w3.org/2000/svg"
   xmlns="http://www.w3.org/2000/svg"
   xmlns:sodipodi="http://sodipodi.sourceforge.net/DTD/sodipodi-0.dtd"
   xmlns:inkscape="http://www.inkscape.org/namespaces/inkscape"
   version="1.1"
   width="24"
   height="24"
   viewBox="0 0 24 24"
   id="svg2"
   inkscape:version="0.92.1 r15371"
   sodipodi:docname="applets-screenshooter-symbolic.svg">
  <metadata
     id="metadata10">
    <rdf:RDF>
      <cc:Work
         rdf:about="">
        <dc:format>image/svg+xml</dc:format>
        <dc:type
           rdf:resource="http://purl.org/dc/dcmitype/StillImage" />
      </cc:Work>
    </rdf:RDF>
  </metadata>
  <defs
     id="defs8" />
  <sodipodi:namedview
     pagecolor="#ffffff"
     bordercolor="#666666"
     borderopacity="1"
     objecttolerance="10"
     gridtolerance="10"
     guidetolerance="10"
     inkscape:pageopacity="0"
     inkscape:pageshadow="2"
     inkscape:window-width="640"
     inkscape:window-height="480"
     id="namedview6"
     showgrid="false"
     inkscape:zoom="25.291667"
     inkscape:cx="4.9621087"
     inkscape:cy="12"
     inkscape:current-layer="svg2" />
  <path
     d="M 4.8,5.7 H 7.5 L 9.3,3.9 h 5.4 l 1.8,1.8 h 2.7 A 1.8,1.8 0 0 1 21,7.5 v 10.8 a 1.8,1.8 0 0 1 -1.8,1.8 H 4.8 A 1.8,1.8 0 0 1 3,18.3 V 7.5 A 1.8,1.8 0 0 1 4.8,5.7 M 12,8.4 A 4.5,4.5 0 0 0 7.5,12.9 4.5,4.5 0 0 0 12,17.4 4.5,4.5 0 0 0 16.5,12.9 4.5,4.5 0 0 0 12,8.4 m 0,1.8 A 2.7,2.7 0 0 1 14.7,12.9 2.7,2.7 0 0 1 12,15.6 2.7,2.7 0 0 1 9.3,12.9 2.7,2.7 0 0 1 12,10.2 Z"
     id="path4"
     style="fill:#bebebe;fill-opacity:1;stroke-width:0.89999998"
     inkscape:connector-curvature="0" />
</svg>
